kora/actions/scalable/fcitx-wubi.svg

<svg xmlns="http://www.w3.org/2000/svg" style="fill-rule:evenodd;clip-rule:evenodd;stroke-linejoin:round;stroke-miterlimit:2" width="100%" height="100%" version="1.1" viewBox="0 0 16 16" xml:space="preserve">
 <defs>
  <style id="current-color-scheme" type="text/css">
   .ColorScheme-Text { color:#dfdfdf; } .ColorScheme-Highlight { color:#4285f4; } .ColorScheme-NeutralText { color:#ff9800; } .ColorScheme-PositiveText { color:#4caf50; } .ColorScheme-NegativeText { color:#f44336; }
  </style>
 </defs>
 <path style="fill:currentColor;" class="ColorScheme-Text" d="M3,3l9,0l0,1l-4.098,0l-0.666,3l3.764,0l0,5l2,0l0,1l-10,0l0,-1l2.1,0l0.888,-4l-1.988,0l0,-1l2.211,0l0.666,-3l-3.877,0l0,-1Zm4.014,5l-0.891,4l3.877,0l0,-4l-2.986,0Z"/>
</svg>

<svg xmlns="http://www.w3.org/2000/svg" width="16" height="16" version="1.1">
 <defs>
  <style id="current-color-scheme" type="text/css">
   .ColorScheme-Text { color:#dfdfdf; } .ColorScheme-Highlight { color:#4285f4; }
  </style>
 </defs>
 <path style="fill:currentColor" class="ColorScheme-Text" d="M 2,0 C 0.892,0 0,0.892 0,2 V 14 C 0,15.108 0.892,16 2,16 H 14 C 15.108,16 16,15.108 16,14 V 2 C 16,0.892 15.108,0 14,0 Z M 3,3 H 12 V 4 H 7.9023 L 7.2363,7 H 11 V 12 H 13 V 13 H 3 V 12 H 5.0996 L 5.9883,8 H 4 V 7 H 6.2109 L 6.877,4 H 3 Z M 7.0137,8 6.123,12 H 10 V 8 Z"/>
</svg>
